cssgg/circleci.svg

<svg
  width="24"
  height="24"
  viewBox="0 0 24 24"
  fill="none"
  xmlns="http://www.w3.org/2000/svg"
>
  <path
    fill-rule="evenodd"
    clip-rule="evenodd"
    d="M12 0C5.37258 0 0 5.37258 0 12C0 18.6274 5.37258 24 12 24C18.6274 24 24 18.6274 24 12C24 5.37258 18.6274 0 12 0ZM4.14355 13.5165C4.85219 17.2096 8.10023 20 12 20C16.4183 20 20 16.4183 20 12C20 7.58172 16.4183 4 12 4C8.0886 4 4.83283 6.80704 4.13728 10.5165L6.72824 10.5071C7.37819 8.20738 9.49236 6.52222 12.0001 6.52222C15.0254 6.52222 17.4779 8.9747 17.4779 12C17.4779 15.0253 15.0254 17.4778 12.0001 17.4778C9.49752 17.4778 7.3869 15.7995 6.73228 13.5071L4.14355 13.5165ZM9.52234 12C9.52234 13.3684 10.6317 14.4778 12.0001 14.4778C13.3685 14.4778 14.4779 13.3684 14.4779 12C14.4779 10.6316 13.3685 9.52222 12.0001 9.52222C10.6317 9.52222 9.52234 10.6316 9.52234 12Z"
    fill="currentColor"
  />
</svg>

<svg viewBox="0 0 24 24" xmlns="http://www.w3.org/2000/svg"><path fill-rule="evenodd" d="M12 0C5.37 0 0 5.37 0 12c0 6.62 5.37 12 12 12 6.62 0 12-5.38 12-12 0-6.63-5.38-12-12-12ZM4.14 13.51c.7 3.69 3.95 6.48 7.85 6.48 4.41 0 8-3.59 8-8 0-4.42-3.59-8-8-8 -3.92 0-7.17 2.8-7.87 6.51l2.59-.01c.64-2.3 2.76-3.99 5.27-3.99 3.02 0 5.47 2.45 5.47 5.47 0 3.02-2.46 5.47-5.48 5.47 -2.51 0-4.62-1.68-5.27-3.98l-2.59 0Zm5.37-1.52c0 1.36 1.1 2.47 2.47 2.47 1.36 0 2.47-1.11 2.47-2.48 0-1.37-1.11-2.48-2.48-2.48 -1.37 0-2.48 1.1-2.48 2.47Z"/></svg>
